X: 32858
T: Portalen
R: polka
M: 2/4
K: Gmajor
|:Gg/f/ dB|cB (E2|E)c BG|c/d/c BG|
A2 Ac/B/|AG F(D|D)c d/c/B|1 AB/c/ BA:|2 AG/A/ Bd||
GA AG|F/G/F (D2|D)c BG|c/d/c BG|
GA AG|F/G/F (D2|D)c d/c/B|AG/A/ Bd|
A2 A3/2G/|F(D3|D)c BG|c/d/c BG|
A2 A/B/A/G/|F/G/F (D2|D)c d/c/B|AB/c/ BA||

